src/images/circuits/mexico.svg

<svg width="40" height="26" viewBox="0 0 40 26" fill="none" xmlns="http://www.w3.org/2000/svg">
<path d="M33.7339 1.21042L3.48839 13.6036C1.72595 14.1927 1.24579 15.6312 1.03219 17.0196C0.818582 18.408 1.72621 18.4614 2.04662 18.2478C2.36702 18.0342 3.27483 17.7138 3.64864 17.8206C4.02245 17.9274 4.60986 17.7138 4.60986 17.073C4.60986 16.7857 4.74404 16.5073 4.8996 16.2868C5.0643 16.0533 5.39471 16.0893 5.56669 16.3175L7.80018 19.2812C7.9347 19.4597 8.17036 19.5276 8.37881 19.447C9.82776 18.8864 12.4276 17.879 13.5278 17.4468C15.023 16.8594 17.4795 16.0584 20.5233 15.6846C23.5672 15.3108 23.5672 17.34 24.208 17.5536C24.8488 17.7672 27.1984 15.9516 28.4266 15.8448C29.6549 15.738 31.0433 17.3934 31.3637 17.3934C31.5887 17.3934 32.6803 17.5305 33.3892 17.6242C33.558 17.6466 33.7034 17.7537 33.7754 17.908L36.8766 24.5596C37.0585 24.9499 37.6157 24.943 37.788 24.5484L38.7198 22.4141C38.8571 22.0996 38.644 21.7434 38.302 21.7157L37.4925 21.65C37.2293 21.6287 37.028 21.4066 37.0329 21.1426C37.1229 16.2561 37.2671 6.98582 37.1844 5.53841C37.0776 3.66938 36.2766 3.61598 35.5823 3.40237C35.1407 3.26647 34.6923 2.28874 34.4198 1.52713C34.3198 1.24778 34.0085 1.09793 33.7339 1.21042Z" stroke="#FF0000"/>
</svg>

<svg width="40" height="26" fill="none" xmlns="http://www.w3.org/2000/svg"><path d="M33.734 1.21 3.488 13.604c-1.762.589-2.242 2.027-2.456 3.416-.213 1.388.694 1.441 1.015 1.228.32-.214 1.228-.534 1.602-.427.373.106.96-.107.96-.748 0-.287.135-.566.29-.786.165-.234.496-.198.668.03L7.8 19.281c.135.179.37.247.579.166 1.449-.56 4.049-1.568 5.149-2a29.075 29.075 0 0 1 6.995-1.762c3.044-.374 3.044 1.655 3.685 1.869.64.213 2.99-1.602 4.219-1.71 1.228-.106 2.616 1.55 2.937 1.55.225 0 1.316.137 2.025.23.169.023.314.13.386.284l3.102 6.652a.5.5 0 0 0 .911-.012l.932-2.134a.5.5 0 0 0-.418-.698l-.81-.066a.5.5 0 0 1-.46-.507c.09-4.887.235-14.157.152-15.605-.106-1.869-.907-1.922-1.602-2.136-.441-.136-.89-1.113-1.162-1.875a.524.524 0 0 0-.686-.317Z" stroke="red"/></svg>
